src/icons/moon-cloud.svg

<?xml version="1.0" encoding="UTF-8" standalone="no"?><svg viewBox="0 0 32 32" xmlns="http://www.w3.org/2000/svg" xmlns:xlink="http://www.w3.org/1999/xlink" xml:space="preserve" fill-rule="evenodd" clip-rule="evenodd" stroke-linejoin="round" stroke-miterlimit="2" fill="currentColor"><g transform="translate(-.016 -.004)"><path d="M23.744 16.512c1.056.736 1.728 1.952 1.728 3.264-.064 2.144-1.824 3.904-4 3.904H12a5.435 5.435 0 0 1-5.44-5.44v-.032c0-1.184.384-2.336 1.12-3.296a6 6 0 0 1-.16-1.312c0-2.432 1.632-4.608 4-5.248a1 1 0 0 1 .8.16c.224.16.352.48.32.768 0 .096-.032.192-.032.32 0 .928.352 1.792.928 2.432a5.85 5.85 0 0 1 4.256-1.824c3.264 0 5.952 2.656 5.952 5.952zM10.912 10.56a3.63 3.63 0 0 0-1.6 3.008 3.646 3.646 0 0 0 3.648 3.648 3.69 3.69 0 0 0 3.36-2.208c-2.688.032-4.928-1.888-5.408-4.448m10.56 11.328c1.184 0 2.144-.96 2.144-2.144 0-.832-.48-1.6-1.248-1.952-.384-.16-.576-.576-.512-.96.032-.256.064-.48.064-.704A4.14 4.14 0 0 0 17.792 12a4.13 4.13 0 0 0-2.752 1.024c.384.16.8.224 1.216.224.32 0 .64-.032.992-.128a1 1 0 0 1 .8.16c.224.192.352.48.32.768-.192 2.784-2.592 4.992-5.408 4.992a5.4 5.4 0 0 1-4.32-2.144c-.16.416-.256.864-.256 1.312 0 .064-.032.096-.032.16A3.64 3.64 0 0 0 12 21.888z"/></g></svg>

<?xml version="1.0" encoding="UTF-8" standalone="no"?>
<!DOCTYPE svg PUBLIC "-//W3C//DTD SVG 1.1//EN" "http://www.w3.org/Graphics/SVG/1.1/DTD/svg11.dtd">
<svg width="100%" height="100%" viewBox="0 0 32 32" version="1.1" xmlns="http://www.w3.org/2000/svg" xmlns:xlink="http://www.w3.org/1999/xlink" xml:space="preserve" xmlns:serif="http://www.serif.com/" style="fill-rule:evenodd;clip-rule:evenodd;stroke-linejoin:round;stroke-miterlimit:2;">
    <g transform="matrix(1,0,0,1,-0.016,-0.00373749)">
        <path d="M7.642,14.735C7.567,14.37 7.52,13.985 7.52,13.6C7.52,11.168 9.152,8.992 11.52,8.352C11.808,8.288 12.096,8.352 12.32,8.512C12.544,8.672 12.672,8.992 12.64,9.28C12.64,9.376 12.608,9.472 12.608,9.6C12.608,10.528 12.96,11.392 13.536,12.032C13.537,12.031 13.538,12.029 13.54,12.028C13.998,12.58 14.462,12.814 15.04,13.024C15.424,13.184 15.84,13.248 16.256,13.248C16.576,13.248 16.896,13.216 17.248,13.12C17.536,13.056 17.824,13.12 18.048,13.28C18.272,13.472 18.4,13.76 18.368,14.048C18.176,16.832 15.776,19.04 12.96,19.04C11.2,19.04 9.632,18.208 8.64,16.896C8.64,16.897 8.639,16.898 8.639,16.899C8.135,16.214 7.845,15.566 7.642,14.735ZM10.912,10.56C9.92,11.232 9.312,12.352 9.312,13.568C9.312,15.584 10.944,17.216 12.96,17.216C14.432,17.216 15.744,16.32 16.32,15.008C13.632,15.04 11.392,13.12 10.912,10.56Z"/>
    </g>
    <g transform="matrix(1,0,0,1,-0.016,-0.00373749)">
        <path d="M13.54,12.028C14.628,10.878 16.162,10.208 17.792,10.208C21.056,10.208 23.744,12.864 23.744,16.16L23.744,16.512C24.8,17.248 25.472,18.464 25.472,19.776C25.408,21.92 23.648,23.68 21.472,23.68L12,23.68C8.992,23.68 6.56,21.248 6.56,18.24L6.56,18.208C6.56,17.024 6.944,15.872 7.68,14.912C7.667,14.854 7.654,14.795 7.642,14.735C7.845,15.566 8.135,16.214 8.639,16.899C8.479,17.315 8.38,17.798 8.351,18.236C8.347,18.3 8.352,18.304 8.352,18.368C8.416,20.32 10.016,21.888 12,21.888L21.472,21.888C22.656,21.888 23.616,20.928 23.616,19.744C23.616,18.912 23.136,18.144 22.368,17.792C21.984,17.632 21.792,17.216 21.856,16.832C21.888,16.576 21.92,16.352 21.92,16.128C21.92,13.856 20.064,12 17.792,12C16.768,12 15.808,12.352 15.04,13.024C14.462,12.814 13.998,12.58 13.54,12.028Z"/>
    </g>
</svg>
